X: 1
T:Boson Rat:tlers' -- Reel
M:C|
L:1/8
R:reel
B:Ryan's Mammoth Collection
N:224
Z:Contributed by Ray Davies,  ray:davies99.freeserve.co.uk
K:D
u((3ABc)|\
d2cA B2AF | "4"DCDF EB,B,E | DF"4"AF DFAd | cABc dABc |
d2cA B2AF | "4"DCDF EB,B,E | DF"4"AF DFAd | cABc d2  ::
u(Bc)|\
dfBc dBfd | c"4"eAB cA"4"ec | dfBc dBfd | c"4"eAc (3BBB(Bc) |
dfBc dBfd | c"4"eAB cAeg | ((3fgf).e.c ((3d"4"ed).c.A | BABc d2 :|
